X:1
T:Buck Reel
M:2/4
L:1/16
R:R
K:D
|:D2FD ADFD|DDGA Bdd2|D2FD ADFD|A,A,CE A,A,CE|!
D2FD ADFD|DDGA Bdd2|faec dBAF|GBAG FDD2|!
|:faed BdAd|BBe2 e3e|efed BAFA|Bd2e d2de|!
faed BdAd|BBe2 e3e|efed BAFA|1Bdde d3e:|2Bdde d2dA|!
